X:87
T:Green Besom (Huggins)
%%VWML:SBG-1-2-484-0
F:http://www.vwml.org/record/SBG/1/2/484
Z:Original Sibelius transcriptions by M. & S. Graebe
L:1/8
M:2/4
I:linebreak $
K:G
V:1 treble nm="P1"
V:1
 G | G G A G/F/ | F D2 D | G A B c | d3 d/B/ | c A B G | F A2 A | A d c A | G3 G | G d d e |$ %10
w: ||||||* * I||||
 d B2 d/c/ | B G A B | c3 d | G d d e | d B2 A | G G F/E/ D | c3 |"^chorus" d/B/ | A G F F |$ %19
w: |||||||1 2|3 4 * *|
 E2 z2 | G G A G | F D D2 | GA B c | d3 d | c A B G | F D3 | A d c/B/ A | G4 | %28
w: |||||||||
T:Green Besom (Sussex version)
F:http://www.vwml.org/record/SBG/1/2/484
Z:Original Sibelius transcriptions by M. & S. Graebe
L:1/4
M:4/4
I:linebreak $
K:D
V:1 treble nm="P1"
V:1
 A | D F E D | C A, z A, | D D E F | A2 z A | D F E D | C A, z A, |$ A, A G E | D2 z | A | %10
 A A A B | G G G E/F/ | G G G A | F2 z F/G/ |$ A A A B | G E z F/G/ | A A G E | D2 z"^chorus" A | %18
 D F E D | C A, z A, |$ D D E F | A2 z A | D F E D | C A, z A, | A, A G E | D2 z x | %26

